Origami/64x64/apps/4kslideshowmaker.svg

<svg xmlns="http://www.w3.org/2000/svg" width="64" height="64" version="1.1" viewBox="0 0 64 64">
 <path style="opacity:0.2" d="m 22.005809,10.000005 c -7.610047,0 -13.9935776,6.384832 -13.9935776,13.996432 0,2.999006 1.0158378,5.787109 2.6823626,8.089736 L 5.4411459,40.831991 C 1.4432608,47.493027 6.2361045,55.9702 14.003623,55.976569 l 35.983484,0.02343 c 7.430361,0.0027 12.266433,-7.815996 8.947065,-14.465064 l -7.99633,-16.00764 C 48.100762,19.863656 40.780006,18.23292 35.808068,22.157062 34.873702,15.391539 28.987886,10.000005 22.005809,10.000005 Z"/>
 <path style="fill:#a1252b" d="m 22.005809,9.0000043 c -7.610047,0 -13.9935776,6.3848327 -13.9935776,13.9964327 0,2.999006 1.0158378,5.787109 2.6823626,8.089736 L 5.4411459,39.831991 C 1.4432608,46.493027 6.2361045,54.9702 14.003623,54.976569 l 35.983484,0.02343 c 7.430361,0.0027 12.266433,-7.815996 8.947065,-14.465064 l -7.99633,-16.00764 C 48.100762,18.863656 40.780006,17.23292 35.808068,21.157062 34.873702,14.391539 28.987886,9.0000043 22.005809,9.0000043 Z"/>
 <path style="opacity:0.2;fill:currentColor" class="ColorScheme-Text" d="m 22,19.988282 a 4,4 0 0 0 -4,4 4,4 0 0 0 4,4 4,4 0 0 0 4,-4 4,4 0 0 0 -4,-4 z m 20,10 -6,9 -6,-5 -6,8 -4,-6 -6,9.988282 L 50,46 Z"/>
 <path style="fill:#ffffff" d="m 22,19 a 4,4 0 0 0 -4,4 4,4 0 0 0 4,4 4,4 0 0 0 4,-4 4,4 0 0 0 -4,-4 z m 20,10 -6,9 -6,-5 -6,8 -4,-6 -6,9.988282 36,0.02344 z"/>
 <path style="opacity:0.1;fill:#ffffff" d="M 22.005859 9 C 14.395812 9 8.0117187 15.384494 8.0117188 22.996094 C 8.0117188 23.182549 8.0273908 23.366023 8.0351562 23.550781 C 8.2798667 16.138572 14.545804 10 22.005859 10 C 28.987936 10 34.874228 15.390727 35.808594 22.15625 C 40.780532 18.232108 48.10042 19.863705 50.9375 25.527344 L 58.933594 41.535156 C 59.602613 42.875278 59.926553 44.261513 59.978516 45.623047 C 60.085745 43.947765 59.767388 42.205341 58.933594 40.535156 L 50.9375 24.527344 C 48.10042 18.863705 40.780532 17.232108 35.808594 21.15625 C 34.874228 14.390727 28.987936 9 22.005859 9 z M 10.378906 31.613281 L 5.4414062 39.832031 C 4.3509392 41.648902 3.9336605 43.598209 4.0332031 45.476562 C 4.1102709 43.914141 4.5436752 42.327777 5.4414062 40.832031 L 10.695312 32.085938 C 10.584112 31.932293 10.484204 31.771167 10.378906 31.613281 z"/>
</svg>

<svg width="64" height="64" version="1.1" viewBox="0 0 64 64" xmlns="http://www.w3.org/2000/svg">
 <path d="m22.005809 10.000005c-7.610047 0-13.993578 6.384832-13.993578 13.996432 0 2.999006 1.0158378 5.787109 2.6823626 8.089736l-5.2534481 8.745818c-3.9978851 6.661036 0.7949586 15.138209 8.5624771 15.144578l35.983484 0.02343c7.430361 0.0027 12.266433-7.815996 8.947065-14.465064l-7.99633-16.00764c-2.83708-5.663639-10.157836-7.294375-15.129774-3.370233-0.934366-6.765523-6.820182-12.157057-13.802259-12.157057z" style="opacity:.2"/>
 <path d="m22.005809 9.0000043c-7.610047 0-13.993578 6.3848327-13.993578 13.996433 0 2.999006 1.0158378 5.787109 2.6823626 8.089736l-5.2534481 8.745818c-3.9978851 6.661036 0.7949586 15.138209 8.5624771 15.144578l35.983484 0.02343c7.430361 0.0027 12.266433-7.815996 8.947065-14.465064l-7.99633-16.00764c-2.83708-5.663639-10.157836-7.294375-15.129774-3.370233-0.934366-6.765523-6.820182-12.157058-13.802259-12.157058z" style="fill:#a1252b"/>
 <path class="ColorScheme-Text" d="m22 19.988282a4 4 0 0 0 -4 4 4 4 0 0 0 4 4 4 4 0 0 0 4 -4 4 4 0 0 0 -4 -4zm20 10-6 9-6-5-6 8-4-6-6 9.988282l36 0.023436z" style="fill:currentColor;opacity:.2"/>
 <path d="m22 19a4 4 0 0 0 -4 4 4 4 0 0 0 4 4 4 4 0 0 0 4 -4 4 4 0 0 0 -4 -4zm20 10-6 9-6-5-6 8-4-6-6 9.988282 36 0.02344z" style="fill:#ffffff"/>
 <path d="m22.005859 9c-7.610047 0-13.99414 6.384494-13.99414 13.996094 0 0.186455 0.015672 0.369929 0.0234374 0.554687 0.2447105-7.412209 6.5106478-13.550781 13.970703-13.550781 6.982077 0 12.868369 5.390727 13.802735 12.15625 4.971938-3.924142 12.291826-2.292545 15.128906 3.371094l7.996094 16.007812c0.669019 1.340122 0.992959 2.726357 1.044922 4.087891 0.107229-1.675282-0.211128-3.417706-1.044922-5.087891l-7.996094-16.007812c-2.83708-5.663639-10.156968-7.295236-15.128906-3.371094-0.934366-6.765523-6.820658-12.15625-13.802735-12.15625zm-11.626953 22.613281l-4.9374998 8.21875c-1.090467 1.816871-1.5077457 3.766178-1.4082031 5.644531 0.0770678-1.562421 0.5104721-3.148785 1.4082031-4.644531l5.2539058-8.746093c-0.1112-0.153645-0.211108-0.314771-0.316406-0.472657z" style="fill:#ffffff;opacity:.1"/>
</svg>
